Obsidian-SemiLight/actions/24s/quickopen-function.svg

<svg viewBox="0 0 24 24" xmlns="http://www.w3.org/2000/svg"><path d="m8 4-4 7h2v5l4-7h-2zm4 8v8h8v-8zm-7 5v1h3v-1zm2 2v1h4v-1z" fill="#4d4d4d"/></svg>

<svg xmlns="http://www.w3.org/2000/svg" viewBox="0 0 24 24">
  <defs id="defs3051">
    <style type="text/css" id="current-color-scheme">
      .ColorScheme-Text {
        color:#4d4d4d;
      }
      </style>
  </defs>
 <path style="fill:currentColor;fill-opacity:1;stroke:none" 
     d="M 8 4 L 4 11 L 6 11 L 6 16 L 10 9 L 8 9 L 8 4 z M 12 12 L 12 20 L 20 20 L 20 12 L 12 12 z M 5 17 L 5 18 L 8 18 L 8 17 L 5 17 z M 7 19 L 7 20 L 11 20 L 11 19 L 7 19 z "
     class="ColorScheme-Text"
     />
</svg>
